X: 10818
T: Drakskeppet
R: reel
M: 4/4
K: Edorian
|:B2 AG E3 F|GGAB c3d|B2 AG EEGA|BAAG EEGA|
B2 AG E3 F|GGAB c3d|B2 AG EEGA|1 BAAG E2 GA:|2 BAAG E2 FE||
|:D2 d2 dc A2|dcde dcAF|D2 d2 dcAB|=c3 c- cBGF|
D2 d2 dcA2|dcde dcAB|=c3 c- cBAG|1 B2 AG A3F:|2 B2 AG A4||

